src/gui/emoticons/hotdog.svg

<svg xmlns="http://www.w3.org/2000/svg" xmlns:xlink="http://www.w3.org/1999/xlink" width="16pt" height="16pt" version="1.1" viewBox="0 0 16 16"><defs><linearGradient id="linear0" x1="185.86" x2="186.68" y1="289.95" y2="304.88" gradientTransform="matrix(-0.0883875,-0.0883875,-0.102037,0.102037,55.62625,-6.8275)" gradientUnits="userSpaceOnUse"><stop offset="0" style="stop-color:#d1824d;stop-opacity:1"/><stop offset=".365" style="stop-color:#f6c970;stop-opacity:1"/><stop offset="1" style="stop-color:#fee8af;stop-opacity:1"/></linearGradient><linearGradient id="linear1" x1="186.11" x2="187.01" y1="296.69" y2="312.95" gradientTransform="matrix(-0.0883875,-0.0883875,-0.0883875,0.0883875,51.75,-2.95175)" gradientUnits="userSpaceOnUse"><stop offset="0" style="stop-color:#ff3800;stop-opacity:1"/><stop offset=".995" style="stop-color:#7d1d00;stop-opacity:1"/></linearGradient><linearGradient id="linear2" x1="186.43" x2="187.6" y1="312.03" y2="345.98" gradientTransform="matrix(-0.0883875,-0.0883875,-0.0883875,0.0883875,51.75,-2.95175)" gradientUnits="userSpaceOnUse"><stop offset="0" style="stop-color:#f6c970;stop-opacity:1"/><stop offset=".022" style="stop-color:#f7c96f;stop-opacity:1"/><stop offset=".192" style="stop-color:#ffca68;stop-opacity:1"/><stop offset="1" style="stop-color:#b74e09;stop-opacity:1"/></linearGradient><filter id="alpha" width="100%" height="100%" x="0%" y="0%" filterUnits="objectBoundingBox"><feColorMatrix in="SourceGraphic" type="matrix" values="0 0 0 0 1 0 0 0 0 1 0 0 0 0 1 0 0 0 1 0"/></filter><mask id="mask0"><g filter="url(#alpha)"><rect width="16" height="16" x="0" y="0" style="fill:#000;fill-opacity:.2;stroke:none"/></g></mask><clipPath id="clip1"><rect width="16" height="16"/></clipPath><g id="surface6" clip-path="url(#clip1)"><path style="stroke:none;fill-rule:nonzero;fill:#424242;fill-opacity:1" d="M 4.765625 1.101562 C 4.921875 1.101562 5.074219 1.140625 5.207031 1.214844 C 5.339844 1.351562 5.753906 2.03125 6.117188 2.632812 C 6.890625 3.90625 7.945312 5.652344 8.890625 6.683594 C 10 7.894531 11.320312 8.851562 12.375 9.621094 C 13.207031 10.222656 13.925781 10.746094 14.109375 11.089844 C 14.335938 11.5 14.171875 11.910156 13.996094 12.179688 C 13.945312 12.257812 13.925781 12.351562 13.941406 12.445312 C 13.96875 12.625 13.917969 12.78125 13.773438 12.953125 L 13.730469 13.007812 C 13.53125 13.246094 13.433594 13.34375 13.257812 13.34375 C 13.222656 13.34375 13.1875 13.339844 13.148438 13.332031 C 13.125 13.328125 13.105469 13.328125 13.082031 13.328125 C 12.96875 13.328125 12.863281 13.375 12.789062 13.464844 C 12.703125 13.574219 12.683594 13.71875 12.734375 13.84375 C 12.882812 14.203125 12.859375 14.488281 12.648438 14.777344 C 12.464844 15.039062 12.195312 15.160156 11.804688 15.160156 C 11.324219 15.160156 10.671875 14.976562 9.816406 14.59375 C 7.371094 13.507812 3.886719 10.75 2.101562 6.558594 C 0.660156 3.167969 1.472656 2.609375 1.90625 2.3125 C 1.945312 2.285156 1.980469 2.261719 2.011719 2.238281 C 2.066406 2.199219 2.109375 2.175781 2.140625 2.175781 C 2.167969 2.175781 2.25 2.195312 2.429688 2.375 C 2.5 2.449219 2.597656 2.484375 2.695312 2.484375 C 2.738281 2.484375 2.78125 2.480469 2.824219 2.464844 C 2.960938 2.414062 3.058594 2.289062 3.070312 2.140625 C 3.082031 2.015625 3.121094 1.898438 3.199219 1.765625 C 3.449219 1.355469 3.679688 1.355469 3.757812 1.355469 C 3.804688 1.355469 3.851562 1.359375 3.902344 1.375 C 3.929688 1.382812 3.960938 1.386719 3.992188 1.386719 C 4.082031 1.386719 4.171875 1.351562 4.238281 1.292969 C 4.421875 1.132812 4.628906 1.101562 4.765625 1.101562 M 4.765625 0.726562 C 4.492188 0.726562 4.214844 0.816406 3.992188 1.011719 C 3.917969 0.992188 3.835938 0.980469 3.757812 0.980469 C 3.464844 0.980469 3.148438 1.125 2.878906 1.574219 C 2.777344 1.738281 2.710938 1.910156 2.695312 2.109375 C 2.5 1.917969 2.324219 1.800781 2.140625 1.800781 C 2.027344 1.800781 1.914062 1.84375 1.789062 1.933594 C 1.3125 2.28125 0.0898438 2.792969 1.757812 6.703125 C 3.664062 11.1875 7.390625 13.925781 9.664062 14.9375 C 10.511719 15.316406 11.230469 15.535156 11.804688 15.535156 C 12.300781 15.535156 12.6875 15.371094 12.953125 14.996094 C 13.257812 14.574219 13.265625 14.144531 13.082031 13.703125 C 13.144531 13.714844 13.203125 13.71875 13.257812 13.71875 C 13.652344 13.71875 13.851562 13.445312 14.058594 13.199219 C 14.285156 12.929688 14.355469 12.664062 14.3125 12.386719 C 14.515625 12.070312 14.765625 11.503906 14.441406 10.910156 C 13.953125 10.007812 11.1875 8.632812 9.171875 6.429688 C 7.640625 4.769531 5.773438 1.117188 5.421875 0.90625 C 5.222656 0.789062 4.996094 0.726562 4.765625 0.726562 Z M 4.765625 0.726562"/></g><linearGradient id="linear3" x1="28.134" x2="104.9" y1="17.396" y2="97.571" gradientTransform="matrix(0.125,0,0,0.125,0,0)" gradientUnits="userSpaceOnUse"><stop offset="0" style="stop-color:#ff0;stop-opacity:1"/><stop offset=".536" style="stop-color:#ffcb00;stop-opacity:1"/><stop offset=".995" style="stop-color:#ffe973;stop-opacity:1"/></linearGradient></defs><g id="surface1"><path style="stroke:none;fill-rule:nonzero;fill:url(#linear0)" d="M 14.109375 12.640625 C 13.675781 13.402344 11.632812 12.179688 7.855469 7.804688 C 4.078125 3.433594 3.511719 1.824219 3.667969 1.460938 C 4 0.699219 4.839844 0.554688 5.421875 0.90625 C 5.769531 1.117188 7.640625 4.769531 9.167969 6.429688 C 11.1875 8.632812 13.953125 10.007812 14.441406 10.910156 C 14.929688 11.8125 14.109375 12.640625 14.109375 12.640625 Z M 14.109375 12.640625"/><path style="stroke:none;fill-rule:nonzero;fill:url(#linear1)" d="M 14.058594 13.195312 C 13.472656 13.894531 12.96875 14.792969 7.898438 9.246094 C 2.828125 3.703125 2.292969 2.535156 2.878906 1.570312 C 3.460938 0.609375 4.25 1.050781 4.535156 1.300781 C 4.820312 1.554688 6.574219 4.636719 8.988281 7.273438 C 11.40625 9.910156 15.386719 11.617188 14.058594 13.195312 Z M 14.058594 13.195312"/><path style="stroke:none;fill-rule:nonzero;fill:url(#linear2)" d="M 12.953125 14.996094 C 12.382812 15.800781 11.246094 15.640625 9.664062 14.9375 C 7.390625 13.925781 3.664062 11.1875 1.757812 6.703125 C 0.09375 2.792969 1.316406 2.28125 1.789062 1.933594 C 2.261719 1.585938 2.59375 1.953125 3.132812 2.613281 C 3.667969 3.277344 5.136719 5.15625 6.714844 6.988281 C 8.296875 8.820312 8.640625 9.136719 10.300781 10.703125 C 11.960938 12.265625 13.902344 13.671875 12.953125 14.996094 Z M 12.953125 14.996094"/><use mask="url(#mask0)" xlink:href="#surface6"/><path style="stroke:none;fill-rule:nonzero;fill:url(#linear3)" d="M 12.691406 12.207031 C 12.507812 12.207031 12.316406 12.171875 12.144531 12.0625 C 11.820312 11.859375 11.707031 11.523438 11.609375 11.226562 C 11.542969 11.035156 11.484375 10.851562 11.375 10.742188 C 11.242188 10.613281 11.011719 10.566406 10.765625 10.519531 C 10.460938 10.457031 10.117188 10.390625 9.851562 10.136719 C 9.546875 9.839844 9.476562 9.421875 9.425781 9.082031 L 9.417969 9.03125 C 9.382812 8.804688 9.3125 8.492188 9.125 8.386719 C 9.03125 8.332031 8.886719 8.3125 8.734375 8.292969 C 8.449219 8.253906 8.089844 8.203125 7.886719 7.875 C 7.746094 7.65625 7.753906 7.414062 7.761719 7.21875 C 7.765625 7.089844 7.765625 6.96875 7.730469 6.910156 C 7.6875 6.847656 7.5625 6.804688 7.425781 6.761719 C 7.230469 6.699219 6.988281 6.621094 6.820312 6.410156 C 6.636719 6.179688 6.628906 5.902344 6.625 5.679688 C 6.621094 5.53125 6.617188 5.390625 6.5625 5.320312 C 6.511719 5.25 6.371094 5.207031 6.222656 5.160156 C 6.015625 5.097656 5.757812 5.019531 5.578125 4.796875 C 5.378906 4.550781 5.375 4.257812 5.371094 4.015625 C 5.371094 3.867188 5.367188 3.722656 5.320312 3.632812 C 5.253906 3.503906 5.066406 3.425781 4.921875 3.386719 C 4.859375 3.367188 4.792969 3.351562 4.726562 3.335938 C 4.550781 3.296875 4.347656 3.246094 4.160156 3.144531 C 3.855469 2.984375 3.574219 2.636719 3.640625 2.234375 C 3.671875 2.0625 3.832031 1.945312 4 1.976562 C 4.171875 2.003906 4.285156 2.164062 4.257812 2.332031 C 4.246094 2.414062 4.332031 2.53125 4.453125 2.59375 C 4.574219 2.65625 4.71875 2.691406 4.871094 2.730469 C 4.945312 2.746094 5.019531 2.765625 5.09375 2.785156 C 5.476562 2.894531 5.738281 3.082031 5.875 3.34375 C 5.992188 3.566406 5.996094 3.800781 6 4.011719 C 6 4.179688 6.003906 4.328125 6.066406 4.40625 C 6.125 4.480469 6.261719 4.519531 6.40625 4.566406 C 6.621094 4.628906 6.890625 4.710938 7.066406 4.953125 C 7.234375 5.179688 7.242188 5.449219 7.25 5.664062 C 7.253906 5.816406 7.257812 5.957031 7.3125 6.023438 C 7.359375 6.085938 7.484375 6.128906 7.617188 6.171875 C 7.828125 6.238281 8.09375 6.324219 8.253906 6.570312 C 8.398438 6.792969 8.390625 7.039062 8.386719 7.238281 C 8.382812 7.363281 8.378906 7.484375 8.414062 7.542969 C 8.460938 7.621094 8.601562 7.644531 8.820312 7.671875 C 9.015625 7.699219 9.238281 7.730469 9.4375 7.847656 C 9.851562 8.082031 9.972656 8.550781 10.035156 8.933594 L 10.042969 8.984375 C 10.082031 9.257812 10.128906 9.539062 10.28125 9.6875 C 10.417969 9.8125 10.644531 9.859375 10.886719 9.90625 C 11.195312 9.96875 11.546875 10.035156 11.8125 10.296875 C 12.023438 10.511719 12.117188 10.785156 12.199219 11.03125 C 12.273438 11.253906 12.339844 11.449219 12.472656 11.535156 C 12.648438 11.640625 12.9375 11.5625 13.199219 11.476562 C 13.363281 11.421875 13.539062 11.511719 13.59375 11.675781 C 13.644531 11.839844 13.554688 12.015625 13.390625 12.070312 C 13.222656 12.125 12.964844 12.207031 12.691406 12.207031 Z M 12.691406 12.207031"/></g></svg>

<svg xmlns="http://www.w3.org/2000/svg" xmlns:xlink="http://www.w3.org/1999/xlink" width="16pt" height="16pt" viewBox="0 0 16 16"><defs><linearGradient id="c" x1="185.86" x2="186.68" y1="289.95" y2="304.88" gradientTransform="rotate(45 36.055 63.733)scale(-.125 .1443)" gradientUnits="userSpaceOnUse"><stop offset="0" style="stop-color:#d1824d;stop-opacity:1"/><stop offset=".365" style="stop-color:#f6c970;stop-opacity:1"/><stop offset="1" style="stop-color:#fee8af;stop-opacity:1"/></linearGradient><linearGradient id="d" x1="186.11" x2="187.01" y1="296.69" y2="312.95" gradientTransform="rotate(45 29.438 60.992)scale(-.125 .125)" gradientUnits="userSpaceOnUse"><stop offset="0" style="stop-color:#ff3800;stop-opacity:1"/><stop offset=".995" style="stop-color:#7d1d00;stop-opacity:1"/></linearGradient><linearGradient id="e" x1="186.43" x2="187.6" y1="312.03" y2="345.98" gradientTransform="rotate(45 29.438 60.992)scale(-.125 .125)" gradientUnits="userSpaceOnUse"><stop offset="0" style="stop-color:#f6c970;stop-opacity:1"/><stop offset=".022" style="stop-color:#f7c96f;stop-opacity:1"/><stop offset=".192" style="stop-color:#ffca68;stop-opacity:1"/><stop offset="1" style="stop-color:#b74e09;stop-opacity:1"/></linearGradient><linearGradient id="h" x1="28.134" x2="104.9" y1="17.396" y2="97.571" gradientTransform="scale(.125)" gradientUnits="userSpaceOnUse"><stop offset="0" style="stop-color:#ff0;stop-opacity:1"/><stop offset=".536" style="stop-color:#ffcb00;stop-opacity:1"/><stop offset=".995" style="stop-color:#ffe973;stop-opacity:1"/></linearGradient><clipPath id="b"><path d="M0 0h16v16H0z"/></clipPath><filter id="a" width="100%" height="100%" x="0%" y="0%" filterUnits="objectBoundingBox"><feColorMatrix in="SourceGraphic" values="0 0 0 0 1 0 0 0 0 1 0 0 0 0 1 0 0 0 1 0"/></filter><mask id="f"><g filter="url(#a)"><path d="M0 0h16v16H0z" style="fill:#000;fill-opacity:.2;stroke:none"/></g></mask><g id="g" clip-path="url(#b)"><path d="M4.766 1.102c.156 0 .308.039.441.113.133.137.547.816.91 1.418.774 1.273 1.828 3.02 2.774 4.05C10 7.896 11.32 8.853 12.375 9.622c.832.602 1.55 1.125 1.734 1.469.227.41.063.82-.113 1.09a.37.37 0 0 0-.055.265c.028.18-.023.336-.168.508l-.043.055c-.199.238-.296.336-.472.336a.6.6 0 0 1-.11-.012q-.033-.005-.066-.004a.37.37 0 0 0-.293.137.38.38 0 0 0-.055.379c.149.36.125.644-.086.933-.183.262-.453.383-.843.383-.48 0-1.133-.183-1.989-.566-2.445-1.086-5.93-3.844-7.714-8.035-1.442-3.391-.63-3.95-.196-4.246q.059-.04.106-.075.081-.06.129-.062c.027 0 .109.02.289.199.07.074.168.11.265.11a.4.4 0 0 0 .13-.02.38.38 0 0 0 .245-.324.9.9 0 0 1 .13-.375c.25-.41.48-.41.558-.41.047 0 .094.003.144.019a.378.378 0 0 0 .336-.082.8.8 0 0 1 .528-.191m0-.375c-.274 0-.551.09-.774.285A1 1 0 0 0 3.758.98c-.293 0-.61.145-.88.594a1.2 1.2 0 0 0-.183.535c-.195-.191-.37-.308-.554-.308a.6.6 0 0 0-.352.133c-.476.347-1.7.859-.031 4.77 1.906 4.484 5.633 7.222 7.906 8.234.848.378 1.566.597 2.14.597.497 0 .883-.164 1.15-.539.304-.422.312-.851.128-1.293a1 1 0 0 0 .176.016c.394 0 .594-.274.8-.52.227-.27.297-.535.255-.812.203-.317.453-.883.128-1.477-.488-.902-3.254-2.277-5.27-4.48-1.53-1.66-3.398-5.313-3.75-5.524-.198-.117-.425-.18-.655-.18m0 0" style="stroke:none;fill-rule:nonzero;fill:#424242;fill-opacity:1"/></g></defs><path d="M14.11 12.64c-.434.762-2.477-.46-6.255-4.835-3.777-4.371-4.343-5.98-4.187-6.344C4 .699 4.84.555 5.422.906 5.77 1.117 7.64 4.77 9.168 6.43c2.02 2.203 4.785 3.578 5.273 4.48.489.902-.332 1.73-.332 1.73m0 0" style="stroke:none;fill-rule:nonzero;fill:url(#c)"/><path d="M14.059 13.195c-.586.7-1.09 1.598-6.16-3.949-5.07-5.543-5.606-6.71-5.02-7.676.582-.96 1.371-.52 1.656-.27.285.255 2.04 3.337 4.453 5.973 2.418 2.637 6.399 4.344 5.07 5.922m0 0" style="stroke:none;fill-rule:nonzero;fill:url(#d)"/><path d="M12.953 14.996c-.57.805-1.707.645-3.289-.059-2.273-1.011-6-3.75-7.906-8.234-1.664-3.91-.442-4.422.031-4.77s.805.02 1.344.68c.535.664 2.004 2.543 3.582 4.375C8.297 8.82 8.64 9.137 10.3 10.703c1.66 1.563 3.601 2.969 2.652 4.293m0 0" style="stroke:none;fill-rule:nonzero;fill:url(#e)"/><use xlink:href="#g" mask="url(#f)"/><path d="M12.691 12.207a1 1 0 0 1-.546-.145c-.325-.203-.438-.539-.536-.835-.066-.192-.125-.375-.234-.485-.133-.129-.363-.176-.61-.222-.304-.063-.648-.13-.913-.383-.305-.297-.375-.715-.426-1.055l-.008-.05c-.035-.227-.105-.54-.293-.645-.094-.055-.238-.075-.39-.094-.286-.04-.645-.09-.848-.418-.14-.219-.133-.46-.125-.656.004-.13.004-.25-.032-.309-.043-.062-.168-.105-.304-.148-.196-.063-.438-.14-.606-.352-.183-.23-.191-.508-.195-.73-.004-.149-.008-.29-.062-.36-.051-.07-.192-.113-.34-.16-.207-.062-.465-.14-.645-.363-.2-.246-.203-.54-.207-.781 0-.149-.004-.293-.05-.383-.067-.13-.255-.207-.4-.246a3 3 0 0 0-.194-.051 2.2 2.2 0 0 1-.567-.191c-.305-.16-.586-.508-.52-.91a.312.312 0 0 1 .618.097c-.012.082.074.2.195.262s.266.097.418.136q.112.025.223.055.575.165.781.559c.117.222.121.457.125.668 0 .168.004.316.066.394.059.074.196.114.34.16.215.063.485.145.66.387.168.227.176.496.184.711.004.152.008.293.063.36.046.062.171.105.304.148.211.066.477.152.637.398.144.223.137.47.133.668-.004.125-.008.246.027.305.047.078.188.102.406.129.196.027.418.058.617.176.415.234.536.703.598 1.086l.008.05c.039.274.086.555.238.704.137.124.364.171.606.218.308.063.66.13.925.39.211.216.305.49.387.735.074.223.14.418.274.504.175.106.464.027.726-.058a.31.31 0 0 1 .395.199c.05.164-.04.34-.203.394-.168.055-.426.137-.7.137m0 0" style="stroke:none;fill-rule:nonzero;fill:url(#h)"/></svg>
